;FLAVOR:Marlin
;TIME:2034
;Filament used: 0.665116m
;Layer height: 0.2
;MINX:76.517
;MINY:2.203
;MINZ:0.2
;MAXX:143.483
;MAXY:43.168
;MAXZ:2.8
;TARGET_MACHINE.NAME:Creality Ender-3 Pro
;POSTPROCESSED
;  [PauseAtHeight]
;Generated with Cura_SteamEngine 5.7.1
M82 ;absolute extrusion mode
; Ender 3 Custom Start G-code
G92 E0 ; Reset Extruder
G28 ; Home all axes
G1 Z5.0 F3000 ; Move Z Axis up a bit during heating to not damage bed
M104 S175 ; Start heating up the nozzle most of the way
M190 S60 ; Start heating the bed, wait until target temperature reached
M109 S200 ; Finish heating the nozzle
G1 Z2.0 F3000 ; Move Z Axis up little to prevent scratching of Heat Bed
G1 X0.1 Y20 Z0.3 F5000.0 ; Move to start position
G1 X0.1 Y200.0 Z0.3 F1500.0 E15 ; Draw the first line
G1 X0.4 Y200.0 Z0.3 F5000.0 ; Move to side a little
G1 X0.4 Y20 Z0.3 F1500.0 E30 ; Draw the second line
G92 E0 ; Reset Extruder
G1 Z2.0 F3000 ; Move Z Axis up little to prevent scratching of Heat Bed
G1 X5 Y20 Z0.3 F5000.0 ; Move over to prevent blob squish
G92 E0
G92 E0
G1 F1500 E-6.5
;LAYER_COUNT:14
;LAYER:0
M107
G0 F6000 X76.718 Y11.629 Z0.2
;TYPE:SKIRT
G1 F1500 E0
G1 F1200 X76.803 Y11.191 E0.01113
G1 X77.013 Y10.315 E0.0336
G1 X77.333 Y9.361 E0.0587
G1 X77.695 Y8.535 E0.0812
G1 X78.18 Y7.651 E0.10635
G1 X78.681 Y6.903 E0.12881
G1 X79.313 Y6.12 E0.15391
G1 X79.98 Y5.431 E0.17783
G1 X80.763 Y4.761 E0.20354
G1 X81.075 Y4.52 E0.21337
G1 X81.855 Y3.972 E0.23715
G1 X82.681 Y3.493 E0.26097
G1 X83.521 Y3.101 E0.28409
G1 X84.441 Y2.767 E0.30851
G1 X85.267 Y2.544 E0.32985
G1 X85.561 Y2.479 E0.33736
G1 X86.509 Y2.311 E0.36138
G1 X87.725 Y2.22 E0.39179
G1 X88.763 Y2.203 E0.41769
G1 X131.407 Y2.203 E1.48145
G1 X132.224 Y2.213 E1.50183
G1 X133.124 Y2.265 E1.52432
G1 X134.07 Y2.403 E1.54817
G1 X134.372 Y2.462 E1.55584
G1 X135.249 Y2.67 E1.57833
G1 X136.205 Y2.99 E1.60348
G1 X137.031 Y3.349 E1.62594
G1 X137.87 Y3.805 E1.64976
G1 X138.602 Y4.286 E1.67161
G1 X138.873 Y4.481 E1.67994
G1 X139.58 Y5.038 E1.70239
G1 X140.275 Y5.693 E1.72621
G1 X140.943 Y6.445 E1.75131
G1 X141.479 Y7.169 E1.77378
G1 X141.968 Y7.957 E1.79691
G1 X142.418 Y8.799 E1.82073
G1 X142.772 Y9.628 E1.84321
G1 X143.068 Y10.534 E1.86699
G1 X143.294 Y11.516 E1.89212
G1 X143.421 Y12.453 E1.91571
G1 X143.461 Y13.08 E1.93138
G1 X143.478 Y13.761 E1.94838
G1 X143.483 Y31.046 E2.37955
G1 X143.473 Y31.886 E2.40051
G1 X143.421 Y32.786 E2.423
G1 X143.282 Y33.741 E2.44707
G1 X143.197 Y34.179 E2.4582
G1 X142.987 Y35.055 E2.48067
G1 X142.667 Y36.009 E2.50577
G1 X142.305 Y36.835 E2.52827
G1 X141.82 Y37.719 E2.55342
G1 X141.319 Y38.467 E2.57588
G1 X140.687 Y39.25 E2.60098
G1 X140.022 Y39.938 E2.62485
G1 X139.257 Y40.595 E2.65
G1 X138.941 Y40.841 E2.65999
G1 X138.207 Y41.362 E2.68245
G1 X137.337 Y41.869 E2.70756
G1 X136.472 Y42.275 E2.7314
G1 X135.578 Y42.601 E2.75514
G1 X134.643 Y42.855 E2.77931
G1 X133.53 Y43.055 E2.80751
G1 X132.324 Y43.147 E2.83769
G1 X131.132 Y43.168 E2.86742
G1 X88.447 Y43.167 E3.93221
G1 X87.721 Y43.155 E3.95032
G1 X86.763 Y43.096 E3.97426
G1 X85.555 Y42.905 E4.00477
G1 X84.561 Y42.65 E4.03037
G1 X83.611 Y42.313 E4.05551
G1 X82.792 Y41.938 E4.07798
G1 X81.922 Y41.441 E4.10298
G1 X81.315 Y41.027 E4.1213
G1 X81.045 Y40.829 E4.12966
G1 X80.343 Y40.264 E4.15214
G1 X79.618 Y39.565 E4.17726
G1 X78.993 Y38.844 E4.20106
G1 X78.438 Y38.076 E4.2247
G1 X78.056 Y37.455 E4.24288
G1 X77.589 Y36.583 E4.26756
G1 X77.234 Y35.755 E4.29003
G1 X76.929 Y34.824 E4.31447
G1 X76.709 Y33.867 E4.33896
G1 X76.583 Y32.954 E4.36196
G1 X76.54 Y32.3 E4.37831
G1 X76.522 Y31.589 E4.39605
G1 X76.517 Y14.267 E4.82815
G1 X76.529 Y13.469 E4.84805
G1 X76.586 Y12.518 E4.87182
G1 X76.718 Y11.629 E4.89424
G0 F6000 X77.015 Y11.673
G1 F1200 X77.095 Y11.261 E4.90471
G1 X77.305 Y10.385 E4.92718
G1 X77.608 Y9.481 E4.95096
G1 X77.97 Y8.655 E4.97346
G1 X78.429 Y7.818 E4.99727
G1 X78.93 Y7.07 E5.01973
G1 X79.529 Y6.328 E5.04352
G1 X80.175 Y5.659 E5.06672
G1 X80.947 Y4.998 E5.09207
G1 X81.248 Y4.765 E5.10156
G1 X82.006 Y4.231 E5.12469
G1 X82.808 Y3.765 E5.14783
G1 X83.648 Y3.373 E5.17095
G1 X84.519 Y3.057 E5.19407
G1 X85.332 Y2.837 E5.21508
G1 X85.614 Y2.774 E5.22228
G1 X86.531 Y2.61 E5.24552
G1 X87.73 Y2.52 E5.27552
G1 X88.768 Y2.503 E5.30141
G1 X131.403 Y2.503 E6.36495
G1 X132.207 Y2.513 E6.385
G1 X133.107 Y2.565 E6.40749
G1 X134.013 Y2.698 E6.43033
G1 X134.303 Y2.754 E6.4377
G1 X135.18 Y2.962 E6.46019
G1 X136.085 Y3.265 E6.48399
G1 X136.911 Y3.624 E6.50646
G1 X137.726 Y4.068 E6.52961
G1 X138.427 Y4.53 E6.55055
G1 X138.687 Y4.717 E6.55854
G1 X139.394 Y5.274 E6.58099
G1 X140.069 Y5.911 E6.60415
G1 X140.702 Y6.624 E6.62793
G1 X141.238 Y7.348 E6.6504
G1 X141.704 Y8.099 E6.67245
G1 X142.142 Y8.917 E6.69559
G1 X142.496 Y9.746 E6.71808
G1 X142.783 Y10.627 E6.74119
G1 X142.997 Y11.557 E6.765
G1 X143.122 Y12.472 E6.78804
G1 X143.161 Y13.088 E6.80343
G1 X143.178 Y13.761 E6.82023
G1 X143.183 Y31.042 E7.2513
G1 X143.173 Y31.869 E7.27193
G1 X143.121 Y32.769 E7.29442
G1 X142.985 Y33.697 E7.31782
G1 X142.905 Y34.109 E7.32829
G1 X142.695 Y34.985 E7.35076
G1 X142.392 Y35.889 E7.37454
G1 X142.03 Y36.715 E7.39704
G1 X141.571 Y37.552 E7.42085
G1 X141.07 Y38.3 E7.44331
G1 X140.471 Y39.042 E7.4671
G1 X139.826 Y39.71 E7.49026
G1 X139.072 Y40.358 E7.51506
G1 X138.767 Y40.596 E7.52471
G1 X138.033 Y41.117 E7.54716
G1 X137.209 Y41.598 E7.57096
G1 X136.369 Y41.993 E7.59412
G1 X135.499 Y42.311 E7.61723
G1 X134.564 Y42.565 E7.64139
G1 X133.507 Y42.756 E7.66819
G1 X132.319 Y42.847 E7.69791
G1 X131.132 Y42.868 E7.72752
G1 X88.452 Y42.867 E8.79218
G1 X87.739 Y42.856 E8.80997
G1 X86.81 Y42.8 E8.83319
G1 X85.63 Y42.614 E8.86298
G1 X84.636 Y42.359 E8.88858
G1 X83.736 Y42.04 E8.9124
G1 X82.917 Y41.665 E8.93487
G1 X82.091 Y41.193 E8.9586
G1 X81.492 Y40.785 E8.97668
G1 X81.233 Y40.595 E8.98469
G1 X80.531 Y40.03 E9.00717
G1 X79.844 Y39.368 E9.03097
G1 X79.236 Y38.668 E9.0541
G1 X78.694 Y37.919 E9.07716
G1 X78.312 Y37.298 E9.09535
G1 X77.865 Y36.465 E9.11893
G1 X77.51 Y35.637 E9.14141
G1 X77.214 Y34.731 E9.16518
G1 X77.006 Y33.826 E9.18834
G1 X76.882 Y32.934 E9.21081
G1 X76.84 Y32.292 E9.22686
G1 X76.822 Y31.589 E9.2444
G1 X76.817 Y14.271 E9.6764
G1 X76.828 Y13.487 E9.69596
G1 X76.883 Y12.562 E9.71907
G1 X77.015 Y11.673 E9.74149
G0 F6000 X77.31 Y11.73
G1 F1200 X77.387 Y11.331 E9.75163
G1 X77.597 Y10.455 E9.7741
G1 X77.883 Y9.601 E9.79657
G1 X78.245 Y8.775 E9.81906
G1 X78.678 Y7.985 E9.84154
G1 X79.179 Y7.237 E9.86399
G1 X79.745 Y6.536 E9.88647
G1 X80.37 Y5.887 E9.90894
G1 X81.131 Y5.235 E9.93394
G1 X81.421 Y5.01 E9.9431
G1 X82.157 Y4.49 E9.96558
G1 X82.935 Y4.037 E9.98804
G1 X83.751 Y3.655 E10.01051
G1 X84.598 Y3.347 E10.03299
G1 X85.398 Y3.13 E10.05367
G1 X85.667 Y3.069 E10.06055
G1 X86.554 Y2.909 E10.08303
G1 X87.735 Y2.82 E10.11258
G1 X88.773 Y2.803 E10.13847
G1 X131.399 Y2.803 E11.20178
G1 X132.19 Y2.813 E11.22152
G1 X133.09 Y2.865 E11.24401
G1 X133.957 Y2.993 E11.26587
G1 X134.234 Y3.046 E11.2729
G1 X135.111 Y3.254 E11.29539
G1 X135.965 Y3.54 E11.31785
G1 X136.791 Y3.899 E11.34032
G1 X137.582 Y4.331 E11.3628
G1 X138.252 Y4.774 E11.38284
G1 X138.501 Y4.953 E11.39049
G1 X139.208 Y5.51 E11.41294
G1 X139.863 Y6.129 E11.43542
G1 X140.461 Y6.803 E11.4579
G1 X140.997 Y7.527 E11.48037
G1 X141.44 Y8.241 E11.50133
G1 X141.866 Y9.035 E11.52381
G1 X142.22 Y9.864 E11.54629
G1 X142.498 Y10.72 E11.56874
G1 X142.7 Y11.598 E11.59122
G1 X142.823 Y12.491 E11.6137
G1 X142.861 Y13.096 E11.62882
G1 X142.878 Y13.761 E11.64542
G1 X142.883 Y31.038 E12.07639
G1 X142.873 Y31.852 E12.0967
G1 X142.821 Y32.752 E12.11919
G1 X142.69 Y33.64 E12.14158
G1 X142.613 Y34.039 E12.15172
G1 X142.403 Y34.915 E12.17419
G1 X142.117 Y35.769 E12.19665
G1 X141.755 Y36.595 E12.21915
G1 X141.322 Y37.385 E12.24162
G1 X140.821 Y38.133 E12.26408
G1 X140.255 Y38.834 E12.28656
G1 X139.63 Y39.483 E12.30903
G1 X138.888 Y40.121 E12.33344
G1 X138.593 Y40.351 E12.34277
G1 X137.859 Y40.872 E12.36523
G1 X137.081 Y41.327 E12.38771
G1 X136.266 Y41.711 E12.41018
G1 X135.42 Y42.021 E12.43266
G1 X134.485 Y42.275 E12.45683
G1 X133.484 Y42.457 E12.48221
G1 X132.314 Y42.547 E12.51148
G1 X131.132 Y42.568 E12.54097
G1 X88.456 Y42.567 E13.60553
G1 X87.757 Y42.557 E13.62296
G1 X86.857 Y42.504 E13.64545
G1 X85.705 Y42.323 E13.67454
G1 X84.711 Y42.068 E13.70014
G1 X83.861 Y41.767 E13.72264
G1 X83.042 Y41.392 E13.7451
G1 X82.26 Y40.945 E13.76757
G1 X81.669 Y40.543 E13.7854
G1 X81.421 Y40.361 E13.79308
G1 X80.719 Y39.796 E13.81556
G1 X80.07 Y39.171 E13.83803
G1 X79.479 Y38.492 E13.86049
G1 X78.95 Y37.762 E13.88298
G1 X78.568 Y37.141 E13.90116
G1 X78.141 Y36.347 E13.92365
G1 X77.786 Y35.519 E13.94612
G1 X77.506 Y34.663 E13.96859
G1 X77.303 Y33.785 E13.99107
G1 X77.179 Y32.893 E14.01354
G1 X77.14 Y32.284 E14.02876
G1 X77.122 Y31.589 E14.0461
G1 X77.117 Y14.275 E14.478
G1 X77.127 Y13.505 E14.49721
G1 X77.18 Y12.606 E14.51967
G1 X77.31 Y11.73 E14.54177
G1 F1500 E8.04177
;MESH:Chaveiro_adm.stl
G0 F6000 X86.926 Y13.386
G0 X87.88 Y13.624
G0 X88.121 Y28.84
G0 X88.301 Y29.315
G0 X89.258 Y30.637
G0 X90.575 Y31.31
G0 X90.571 Y31.2
;TYPE:WALL-INNER
G1 F1500 E14.54177
G1 F630.8 X89.952 Y31.179 E14.56381
G1 F739.7 X89.186 Y30.723 E14.59086
G1 F900 X88.856 Y30.323 E14.6038
G1 X88.699 Y30.017 E14.61238
G1 F727.8 X88.522 Y29.491 E14.6295
G1 F609.5 X88.522 Y29.314 E14.63602
G1 F727.8 X88.699 Y28.789 E14.65311
G1 F900 X88.856 Y28.469 E14.662
G1 X89.185 Y28.071 E14.67488
G1 X89.685 Y27.764 E14.68952
G1 X90.262 Y27.639 E14.70424
G1 X90.831 Y27.713 E14.71856
G1 X91.145 Y27.846 E14.72706
G1 X91.603 Y28.182 E14.74123
G1 X91.946 Y28.696 E14.75665
G1 X92.087 Y29.259 E14.77113
G1 X92.045 Y29.759 E14.78364
G1 X91.936 Y30.122 E14.7931
G1 X91.601 Y30.623 E14.80813
G1 F841.1 X91.144 Y30.951 E14.82315
G1 F741.8 X90.64 Y31.16 E14.83966
G1 F665 X90.571 Y31.2 E14.84235
G1 F1500 E8.34235
G0 F6000 X90.575 Y31.31
G0 X89.929 Y31.4
G0 X91.146 Y31.563
G0 X131.864 Y31.552
G0 X131.986 Y31.674
G1 F1500 E14.84235
G1 F900 X131.986 Y13.694 E15.29087
G1 X88.011 Y13.695 E16.38783
G1 X88.01 Y28.834 E16.76547
G1 F727.8 X88.082 Y29.276 E16.77928
G1 F609.5 X88.081 Y29.528 E16.78857
G1 F727.8 X88.009 Y29.962 E16.80214
G1 F900 X88.011 Y31.674 E16.84484
G1 X89.589 Y31.671 E16.88421
G1 F733.7 X89.885 Y31.603 E16.8935
G1 F627.9 X90.62 Y31.612 E16.91978
G1 F666.7 X90.71 Y31.631 E16.92288
G1 F787.2 X91.149 Y31.674 E16.93546
G1 F900 X131.986 Y31.674 E17.95414
G0 F6000 X132.15 Y31.974
;TYPE:WALL-OUTER
G1 F900 X132.229 Y31.914 E17.95662
G1 X132.286 Y31.758 E17.96076
G1 X132.286 Y13.527 E18.41554
G1 X132.148 Y13.394 E18.42032
G1 X87.852 Y13.394 E19.52529
G1 X87.71 Y13.528 E19.53016
G1 X87.711 Y31.841 E19.98698
G1 X87.852 Y31.974 E19.99181
G1 X132.15 Y31.974 E21.09683
G1 F1500 E14.59683
G0 F6000 X131.936 Y31.454
G0 X91.146 Y31.563
G0 X89.929 Y31.4
G0 X90.62 Y31.278
G0 X90.522 Y30.836
G1 F1500 E21.09683
G1 F900 X90.019 Y30.812 E21.10939
G1 X89.782 Y30.733 E21.11562
G1 X89.384 Y30.491 E21.12724
G1 X89.067 Y30.099 E21.13982
G1 X88.96 Y29.854 E21.14649
G1 X88.886 Y29.404 E21.15786
G1 X88.974 Y28.908 E21.17043
G1 X89.088 Y28.66 E21.17724
G1 X89.384 Y28.301 E21.18884
G1 X89.799 Y28.046 E21.20099
G1 X90.274 Y27.943 E21.21312
G1 X90.769 Y28.012 E21.22559
G1 X91.01 Y28.115 E21.23212
G1 X91.373 Y28.384 E21.24339
G1 X91.66 Y28.803 E21.25606
G1 X91.784 Y29.283 E21.26843
G1 X91.746 Y29.733 E21.27969
G1 X91.649 Y30.012 E21.28706
G1 X91.382 Y30.41 E21.29902
G1 X90.983 Y30.697 E21.31128
G1 X90.522 Y30.836 E21.32329
G0 F6000 X90.931 Y31.356
;TYPE:SKIN
G1 F900 X91.318 Y31.153 E21.33419
G1 X91.798 Y30.81 E21.34891
G1 X92.187 Y30.231 E21.36631
G1 X92.309 Y29.806 E21.37734
G1 X92.36 Y29.235 E21.39164
G1 X92.196 Y28.59 E21.40824
G1 X91.793 Y27.988 E21.42631
G1 X91.281 Y27.61 E21.44219
G1 X90.92 Y27.454 E21.452
G1 X90.245 Y27.364 E21.46898
G1 X89.587 Y27.507 E21.48578
G1 X89.004 Y27.86 E21.50278
G1 X88.573 Y28.386 E21.51974
G1 X88.412 Y28.805 E21.53094
G1 X88.33 Y28.964 E21.5354
G1 X88.28 Y28.812 E21.5394
G1 X88.278 Y13.962 E21.90983
G1 X131.714 Y13.962 E22.99335
G1 X131.714 Y31.402 E23.42839
G1 X91.163 Y31.402 E24.43994
G1 X90.931 Y31.356 E24.44584
G0 F6000 X91.721 Y31.051
G1 F900 X91.92 Y31.251 E24.45288
G0 F6000 X91.949 Y30.855
G1 F900 X92.345 Y31.251 E24.46685
G0 F6000 X92.769 Y31.251
G1 F900 X92.119 Y30.601 E24.48978
G0 F6000 X92.289 Y30.347
G1 F900 X93.193 Y31.251 E24.52167
G0 F6000 X93.617 Y31.251
G1 F900 X92.397 Y30.03 E24.56472
G0 F6000 X92.473 Y29.682
G1 F900 X94.042 Y31.251 E24.62007
G0 F6000 X94.466 Y31.251
G1 F900 X92.504 Y29.289 E24.68929
G0 F6000 X92.386 Y28.746
G1 F900 X94.89 Y31.251 E24.77764
G0 F6000 X95.314 Y31.251
G1 F900 X88.428 Y24.364 E25.02058
G0 F6000 X88.428 Y24.788
G1 F900 X90.937 Y27.298 E25.10911
G0 F6000 X90.453 Y27.238
G1 F900 X88.428 Y25.213 E25.18055
G0 F6000 X88.428 Y25.637
G1 F900 X90.044 Y27.253 E25.23756
G0 F6000 X89.696 Y27.329
G1 F900 X88.428 Y26.061 E25.28229
G0 F6000 X88.428 Y26.485
G1 F900 X89.392 Y27.449 E25.3163
G0 F6000 X89.127 Y27.609
G1 F900 X88.428 Y26.91 E25.34096
G0 F6000 X88.428 Y27.334
G1 F900 X88.875 Y27.781 E25.35673
G0 F6000 X88.684 Y28.014
G1 F900 X88.428 Y27.758 E25.36576
G0 F6000 X88.428 Y28.182
G1 F900 X88.493 Y28.248 E25.36807
G0 F6000 X88.779 Y28.484
G0 X88.279 Y29.574
G0 X88.155 Y28.93
G0 X88.061 Y23.939
G0 X88.428 Y23.94
G1 F900 X95.739 Y31.251 E25.62598
G0 F6000 X96.163 Y31.251
G1 F900 X88.428 Y23.516 E25.89886
G0 F6000 X88.428 Y23.091
G1 F900 X96.587 Y31.251 E26.1867
G0 F6000 X97.012 Y31.251
G1 F900 X88.428 Y22.667 E26.48953
G0 F6000 X88.428 Y22.243
G1 F900 X97.436 Y31.251 E26.80731
G0 F6000 X97.86 Y31.251
G1 F900 X88.428 Y21.818 E27.14007
G0 F6000 X88.428 Y21.394
G1 F900 X98.284 Y31.251 E27.48778
G0 F6000 X98.709 Y31.251
G1 F900 X88.428 Y20.97 E27.85047
G0 F6000 X88.428 Y20.546
G1 F900 X99.133 Y31.251 E28.22812
G0 F6000 X99.557 Y31.251
G1 F900 X88.428 Y20.121 E28.62074
G0 F6000 X88.428 Y19.697
G1 F900 X99.981 Y31.251 E29.02832
G0 F6000 X100.406 Y31.251
G1 F900 X88.428 Y19.273 E29.45088
G0 F6000 X88.428 Y18.849
G1 F900 X100.83 Y31.251 E29.88839
G0 F6000 X101.254 Y31.251
G1 F900 X88.428 Y18.424 E30.34088
G0 F6000 X88.428 Y18
G1 F900 X101.678 Y31.251 E30.80833
G0 F6000 X102.103 Y31.251
G1 F900 X88.428 Y17.576 E31.29075
G0 F6000 X88.428 Y17.152
G1 F900 X102.527 Y31.251 E31.78813
G0 F6000 X102.951 Y31.251
G1 F900 X88.428 Y16.727 E32.30049
G0 F6000 X88.428 Y16.303
G1 F900 X103.375 Y31.251 E32.8278
G0 F6000 X103.8 Y31.251
G1 F900 X88.428 Y15.879 E33.37009
G0 F6000 X88.428 Y15.455
G1 F900 X104.224 Y31.251 E33.92734
G0 F6000 X104.648 Y31.251
G1 F900 X88.428 Y15.03 E34.49956
G0 F6000 X88.428 Y14.606
G1 F900 X105.073 Y31.251 E35.08676
G0 F6000 X105.497 Y31.251
G1 F900 X88.428 Y14.182 E35.68891
G0 F6000 X88.783 Y14.112
G1 F900 X105.921 Y31.251 E36.29352
G0 F6000 X106.345 Y31.251
G1 F900 X89.207 Y14.112 E36.89812
G0 F6000 X89.631 Y14.112
G1 F900 X106.77 Y31.251 E37.50275
G0 F6000 X107.194 Y31.251
G1 F900 X90.056 Y14.112 E38.10736
G0 F6000 X90.48 Y14.112
G1 F900 X107.618 Y31.251 E38.71196
G0 F6000 X108.042 Y31.251
G1 F900 X90.904 Y14.112 E39.31657
G0 F6000 X91.328 Y14.112
G1 F900 X108.467 Y31.251 E39.92119
G0 F6000 X108.891 Y31.251
G1 F900 X91.753 Y14.112 E40.5258
G0 F6000 X92.177 Y14.112
G1 F900 X109.315 Y31.251 E41.13041
G0 F6000 X109.739 Y31.251
G1 F900 X92.601 Y14.112 E41.73502
G0 F6000 X93.026 Y14.112
G1 F900 X110.164 Y31.251 E42.33962
G0 F6000 X110.588 Y31.251
G1 F900 X93.45 Y14.112 E42.94423
G0 F6000 X93.874 Y14.112
G1 F900 X111.012 Y31.251 E43.54884
G0 F6000 X111.436 Y31.251
G1 F900 X94.298 Y14.112 E44.15344
G0 F6000 X94.723 Y14.112
G1 F900 X111.861 Y31.251 E44.75805
G0 F6000 X112.286 Y31.251
