;FLAVOR:Marlin
;TIME:17738
;Filament used: 22.5364m
;Layer height: 0.2
;MINX:76.489
;MINY:7.435
;MINZ:0.2
;MAXX:212.689
;MAXY:211.633
;MAXZ:8
;TARGET_MACHINE.NAME:Creality Ender-3 Pro
;Generated with Cura_SteamEngine 5.7.1
M82 ;absolute extrusion mode
; Ender 3 Custom Start G-code
G92 E0 ; Reset Extruder
G28 ; Home all axes
G1 Z5.0 F3000 ; Move Z Axis up a bit during heating to not damage bed
M104 S175 ; Start heating up the nozzle most of the way
M190 S60 ; Start heating the bed, wait until target temperature reached
M109 S190 ; Finish heating the nozzle
G1 Z2.0 F3000 ; Move Z Axis up little to prevent scratching of Heat Bed
G1 X0.1 Y20 Z0.3 F5000.0 ; Move to start position
G1 X0.1 Y200.0 Z0.3 F1500.0 E15 ; Draw the first line
G1 X0.4 Y200.0 Z0.3 F5000.0 ; Move to side a little
G1 X0.4 Y20 Z0.3 F1500.0 E30 ; Draw the second line
G92 E0 ; Reset Extruder
G1 Z2.0 F3000 ; Move Z Axis up little to prevent scratching of Heat Bed
G1 X5 Y20 Z0.3 F5000.0 ; Move over to prevent blob squish
G92 E0
G92 E0
G1 F1500 E-6.5
;LAYER_COUNT:40
;LAYER:0
M107
G0 F6000 X76.775 Y21.366 Z0.2
;TYPE:SKIRT
G1 F1500 E0
G1 F1200 X76.489 Y22.814 E0.07364
G1 X76.489 Y204.253 E9.12567
G1 X76.864 Y206.097 E9.21955
G1 X77.306 Y207.087 E9.27364
G1 X78.014 Y208.302 E9.34379
G1 X79.204 Y209.637 E9.43302
G1 X79.949 Y210.178 E9.47895
G1 X81.467 Y211.054 E9.56639
G1 X82.422 Y211.347 E9.61623
G1 X83.87 Y211.633 E9.68986
G1 X105.306 Y211.633 E10.75931
G1 X107.15 Y211.258 E10.85319
G1 X108.14 Y210.816 E10.90728
G1 X109.305 Y210.137 E10.97455
G1 X109.581 Y209.907 E10.99248
G1 X110.005 Y210.213 E11.01857
G1 X111.469 Y211.054 E11.1028
G1 X112.424 Y211.347 E11.15264
G1 X113.872 Y211.633 E11.22627
G1 X175.307 Y211.633 E14.29128
G1 X177.151 Y211.258 E14.38516
G1 X178.141 Y210.816 E14.43925
G1 X179.306 Y210.137 E14.50652
G1 X179.582 Y209.907 E14.52445
G1 X180.006 Y210.213 E14.55053
G1 X181.47 Y211.054 E14.63477
G1 X182.425 Y211.347 E14.6846
G1 X183.873 Y211.633 E14.75824
G1 X205.309 Y211.633 E15.82769
G1 X207.153 Y211.258 E15.92157
G1 X208.143 Y210.816 E15.97566
G1 X209.358 Y210.108 E16.04581
G1 X210.693 Y208.918 E16.13504
G1 X211.234 Y208.173 E16.18097
G1 X212.11 Y206.655 E16.26841
G1 X212.403 Y205.7 E16.31825
G1 X212.689 Y204.252 E16.39188
G1 X212.689 Y22.813 E25.44391
G1 X212.314 Y20.969 E25.53779
G1 X211.872 Y19.979 E25.59188
G1 X211.164 Y18.764 E25.66204
G1 X209.974 Y17.429 E25.75126
G1 X209.229 Y16.888 E25.7972
G1 X207.711 Y16.012 E25.88464
G1 X206.756 Y15.719 E25.93447
G1 X205.308 Y15.433 E26.00811
G1 X192.689 Y15.433 E26.63767
G1 X192.689 Y14.815 E26.66851
G1 X192.314 Y12.971 E26.76239
G1 X191.872 Y11.981 E26.81648
G1 X191.164 Y10.766 E26.88663
G1 X189.974 Y9.431 E26.97586
G1 X189.229 Y8.89 E27.02179
G1 X187.711 Y8.014 E27.10923
G1 X186.756 Y7.721 E27.15907
G1 X185.308 Y7.435 E27.2327
G1 X173.869 Y7.435 E27.8034
G1 X172.025 Y7.81 E27.89728
G1 X171.035 Y8.252 E27.95137
G1 X169.82 Y8.96 E28.02153
G1 X168.485 Y10.15 E28.11075
G1 X167.944 Y10.895 E28.15668
G1 X167.068 Y12.413 E28.24412
G1 X166.775 Y13.368 E28.29396
G1 X166.489 Y14.816 E28.3676
G1 X166.489 Y15.433 E28.39838
G1 X122.689 Y15.433 E30.58357
G1 X122.689 Y14.815 E30.6144
G1 X122.314 Y12.971 E30.70828
G1 X121.872 Y11.981 E30.76237
G1 X121.164 Y10.766 E30.83253
G1 X119.974 Y9.431 E30.92175
G1 X119.229 Y8.89 E30.96769
G1 X117.711 Y8.014 E31.05513
G1 X116.756 Y7.721 E31.10496
G1 X115.308 Y7.435 E31.1786
G1 X103.869 Y7.435 E31.74929
G1 X102.025 Y7.81 E31.84318
G1 X101.035 Y8.252 E31.89727
G1 X99.82 Y8.96 E31.96742
G1 X98.485 Y10.15 E32.05665
G1 X97.944 Y10.895 E32.10258
G1 X97.068 Y12.413 E32.19002
G1 X96.775 Y13.368 E32.23986
G1 X96.489 Y14.816 E32.31349
G1 X96.489 Y15.433 E32.34428
G1 X83.869 Y15.433 E32.97389
G1 X82.025 Y15.808 E33.06777
G1 X81.035 Y16.25 E33.12186
G1 X79.82 Y16.958 E33.19202
G1 X78.485 Y18.148 E33.28124
G1 X77.944 Y18.893 E33.32717
G1 X77.068 Y20.411 E33.41461
G1 X76.775 Y21.366 E33.46445
G0 F6000 X77.364 Y21.482
G1 F1200 X77.622 Y20.651 E33.50786
G1 X78.43 Y19.245 E33.58877
G1 X78.933 Y18.552 E33.63149
G1 X80.173 Y17.447 E33.71435
G1 X81.28 Y16.798 E33.77837
G1 X82.211 Y16.382 E33.82924
G1 X83.929 Y16.033 E33.91671
G1 X97.089 Y16.033 E34.57326
G1 X97.089 Y14.876 E34.63098
G1 X97.364 Y13.484 E34.70177
G1 X97.622 Y12.653 E34.74518
G1 X98.43 Y11.247 E34.82609
G1 X98.933 Y10.554 E34.86881
G1 X100.173 Y9.449 E34.95167
G1 X101.28 Y8.8 E35.01569
G1 X102.211 Y8.384 E35.06657
G1 X103.929 Y8.035 E35.15403
G1 X115.248 Y8.035 E35.71874
G1 X116.64 Y8.31 E35.78952
G1 X117.471 Y8.568 E35.83294
G1 X118.877 Y9.376 E35.91384
G1 X119.57 Y9.879 E35.95656
G1 X120.675 Y11.119 E36.03942
G1 X121.324 Y12.226 E36.10344
G1 X121.74 Y13.157 E36.15432
G1 X122.089 Y14.875 E36.24178
G1 X122.089 Y16.033 E36.29955
G1 X167.089 Y16.033 E38.54461
G1 X167.089 Y14.876 E38.60233
G1 X167.364 Y13.484 E38.67312
G1 X167.622 Y12.653 E38.71653
G1 X168.43 Y11.247 E38.79744
G1 X168.933 Y10.554 E38.84016
G1 X170.173 Y9.449 E38.92302
G1 X171.28 Y8.8 E38.98704
G1 X172.211 Y8.384 E39.03792
G1 X173.929 Y8.035 E39.12538
G1 X185.248 Y8.035 E39.69009
G1 X186.64 Y8.31 E39.76088
G1 X187.471 Y8.568 E39.80429
G1 X188.877 Y9.376 E39.88519
G1 X189.57 Y9.879 E39.92791
G1 X190.675 Y11.119 E40.01077
G1 X191.324 Y12.226 E40.07479
G1 X191.74 Y13.157 E40.12567
G1 X192.089 Y14.875 E40.21313
G1 X192.089 Y16.033 E40.2709
G1 X205.248 Y16.033 E40.92741
G1 X206.64 Y16.308 E40.9982
G1 X207.471 Y16.566 E41.04161
G1 X208.877 Y17.374 E41.12251
G1 X209.57 Y17.877 E41.16523
G1 X210.675 Y19.117 E41.2481
G1 X211.324 Y20.224 E41.31212
G1 X211.74 Y21.155 E41.36299
G1 X212.089 Y22.873 E41.45045
G1 X212.089 Y204.192 E50.49649
G1 X211.814 Y205.584 E50.56728
G1 X211.556 Y206.415 E50.61069
G1 X210.748 Y207.821 E50.6916
G1 X210.245 Y208.514 E50.73432
G1 X209.005 Y209.619 E50.81718
G1 X207.898 Y210.268 E50.8812
G1 X206.967 Y210.684 E50.93208
G1 X205.249 Y211.033 E51.01954
G1 X183.933 Y211.033 E52.083
G1 X182.541 Y210.758 E52.15379
G1 X181.711 Y210.5 E52.19715
G1 X180.357 Y209.726 E52.27496
G1 X179.542 Y209.138 E52.3251
G1 X179.003 Y209.619 E52.36114
G1 X177.896 Y210.268 E52.42516
G1 X176.965 Y210.684 E52.47603
G1 X175.247 Y211.033 E52.5635
G1 X113.932 Y211.033 E55.62251
G1 X112.54 Y210.758 E55.6933
G1 X111.71 Y210.5 E55.73667
G1 X110.356 Y209.726 E55.81448
G1 X109.541 Y209.138 E55.86461
G1 X109.002 Y209.619 E55.90065
G1 X107.895 Y210.268 E55.96467
G1 X106.964 Y210.684 E56.01555
G1 X105.246 Y211.033 E56.10301
G1 X83.93 Y211.033 E57.16647
G1 X82.538 Y210.758 E57.23726
G1 X81.707 Y210.5 E57.28067
G1 X80.301 Y209.692 E57.36157
G1 X79.608 Y209.189 E57.4043
G1 X78.503 Y207.949 E57.48716
G1 X77.854 Y206.842 E57.55118
G1 X77.438 Y205.911 E57.60205
G1 X77.089 Y204.193 E57.68951
G1 X77.089 Y22.874 E66.73556
G1 X77.364 Y21.482 E66.80635
G0 F6000 X77.953 Y21.598
G1 F1200 X78.174 Y20.895 E66.84311
G1 X78.916 Y19.597 E66.9177
G1 X79.381 Y18.956 E66.95721
G1 X80.525 Y17.937 E67.03364
G1 X81.584 Y17.316 E67.09489
G1 X82.393 Y16.957 E67.13905
G1 X83.989 Y16.633 E67.2203
G1 X97.689 Y16.633 E67.90379
G1 X97.689 Y14.936 E67.98846
G1 X97.953 Y13.6 E68.0564
G1 X98.174 Y12.897 E68.09316
G1 X98.916 Y11.599 E68.16775
G1 X99.381 Y10.958 E68.20726
G1 X100.525 Y9.939 E68.2837
G1 X101.584 Y9.318 E68.34494
G1 X102.393 Y8.959 E68.3891
G1 X103.989 Y8.635 E68.47035
G1 X115.188 Y8.635 E69.02907
G1 X116.524 Y8.899 E69.09701
G1 X117.227 Y9.12 E69.13378
G1 X118.525 Y9.862 E69.20837
G1 X119.166 Y10.327 E69.24788
G1 X120.185 Y11.471 E69.32431
G1 X120.806 Y12.53 E69.38556
G1 X121.165 Y13.339 E69.42971
G1 X121.489 Y14.935 E69.51096
G1 X121.489 Y16.633 E69.59568
G1 X167.689 Y16.633 E71.9006
G1 X167.689 Y14.936 E71.98527
G1 X167.953 Y13.6 E72.05321
G1 X168.174 Y12.897 E72.08997
G1 X168.916 Y11.599 E72.16457
G1 X169.381 Y10.958 E72.20407
G1 X170.525 Y9.939 E72.28051
G1 X171.584 Y9.318 E72.34175
G1 X172.393 Y8.959 E72.38591
G1 X173.989 Y8.635 E72.46716
G1 X185.188 Y8.635 E73.02588
G1 X186.524 Y8.899 E73.09382
G1 X187.227 Y9.12 E73.13059
G1 X188.525 Y9.862 E73.20518
G1 X189.166 Y10.327 E73.24469
G1 X190.185 Y11.471 E73.32112
G1 X190.806 Y12.53 E73.38237
G1 X191.165 Y13.339 E73.42652
G1 X191.489 Y14.935 E73.50777
G1 X191.489 Y16.633 E73.59249
G1 X205.188 Y16.633 E74.27593
G1 X206.524 Y16.897 E74.34388
G1 X207.227 Y17.118 E74.38064
G1 X208.525 Y17.86 E74.45523
G1 X209.166 Y18.325 E74.49474
G1 X210.185 Y19.469 E74.57117
G1 X210.806 Y20.528 E74.63242
G1 X211.165 Y21.337 E74.67658
G1 X211.489 Y22.933 E74.75783
G1 X211.489 Y204.132 E83.79788
G1 X211.225 Y205.468 E83.86582
G1 X211.004 Y206.171 E83.90259
G1 X210.262 Y207.469 E83.97718
G1 X209.797 Y208.11 E84.01669
G1 X208.653 Y209.129 E84.09312
G1 X207.594 Y209.75 E84.15437
G1 X206.785 Y210.109 E84.19853
G1 X205.189 Y210.433 E84.27977
G1 X183.993 Y210.433 E85.33725
G1 X182.657 Y210.169 E85.40519
G1 X181.954 Y209.948 E85.44195
G1 X180.655 Y209.205 E85.51661
G1 X180.014 Y208.739 E85.55615
G1 X179.604 Y208.279 E85.58689
G1 X178.651 Y209.129 E85.6506
G1 X177.592 Y209.75 E85.71185
G1 X176.783 Y210.109 E85.75601
G1 X175.187 Y210.433 E85.83726
G1 X113.992 Y210.433 E88.89029
G1 X112.656 Y210.169 E88.95823
G1 X111.953 Y209.948 E88.99499
G1 X110.654 Y209.205 E89.06965
G1 X110.013 Y208.739 E89.10919
G1 X109.603 Y208.279 E89.13993
G1 X108.65 Y209.129 E89.20364
G1 X107.591 Y209.75 E89.26489
G1 X106.782 Y210.109 E89.30905
G1 X105.186 Y210.433 E89.3903
G1 X83.99 Y210.433 E90.44777
G1 X82.654 Y210.169 E90.51571
G1 X81.951 Y209.948 E90.55248
G1 X80.653 Y209.206 E90.62707
G1 X80.012 Y208.741 E90.66658
G1 X78.993 Y207.597 E90.74301
G1 X78.372 Y206.538 E90.80426
G1 X78.013 Y205.729 E90.84841
G1 X77.689 Y204.133 E90.92966
G1 X77.689 Y22.934 E99.96972
G1 X77.953 Y21.598 E100.03766
G0 F6000 X78.542 Y21.714
G1 F1200 X78.289 Y22.994 E100.10275
G1 X78.289 Y204.073 E109.13682
G1 X78.588 Y205.547 E109.21186
G1 X78.89 Y206.235 E109.24934
G1 X79.481 Y207.243 E109.30764
G1 X80.416 Y208.293 E109.37778
G1 X81.005 Y208.72 E109.41408
G1 X82.195 Y209.396 E109.48236
G1 X82.77 Y209.58 E109.51248
G1 X84.05 Y209.833 E109.57757
G1 X105.126 Y209.833 E110.62906
G1 X106.6 Y209.534 E110.70409
G1 X107.288 Y209.232 E110.74158
G1 X108.296 Y208.641 E110.79988
G1 X109.344 Y207.707 E110.86991
G1 X109.594 Y207.367 E110.89097
G1 X110.418 Y208.292 E110.95277
G1 X111.007 Y208.72 E110.98909
G1 X112.197 Y209.396 E111.05737
G1 X112.772 Y209.58 E111.08749
G1 X114.052 Y209.833 E111.15259
G1 X175.127 Y209.833 E114.19963
G1 X176.601 Y209.534 E114.27467
G1 X177.289 Y209.232 E114.31215
G1 X178.297 Y208.641 E114.37045
G1 X179.345 Y207.707 E114.44049
G1 X179.595 Y207.367 E114.46154
G1 X180.419 Y208.292 E114.52334
G1 X181.008 Y208.72 E114.55967
G1 X182.198 Y209.396 E114.62795
G1 X182.773 Y209.58 E114.65807
G1 X184.053 Y209.833 E114.72316
G1 X205.129 Y209.833 E115.77465
G1 X206.603 Y209.534 E115.84969
G1 X207.291 Y209.232 E115.88717
G1 X208.299 Y208.641 E115.94547
G1 X209.349 Y207.706 E116.01561
G1 X209.776 Y207.117 E116.05191
G1 X210.452 Y205.927 E116.12019
G1 X210.636 Y205.352 E116.1503
G1 X210.889 Y204.072 E116.2154
G1 X210.889 Y22.993 E125.24947
G1 X210.59 Y21.519 E125.3245
G1 X210.288 Y20.831 E125.36199
G1 X209.697 Y19.823 E125.42029
G1 X208.762 Y18.773 E125.49043
G1 X208.173 Y18.346 E125.52672
G1 X206.983 Y17.67 E125.595
G1 X206.408 Y17.486 E125.62512
G1 X205.128 Y17.233 E125.69022
G1 X190.889 Y17.233 E126.4006
G1 X190.889 Y14.995 E126.51226
G1 X190.59 Y13.521 E126.5873
G1 X190.288 Y12.833 E126.62478
G1 X189.697 Y11.825 E126.68308
G1 X188.762 Y10.775 E126.75322
G1 X188.173 Y10.348 E126.78952
G1 X186.983 Y9.672 E126.85779
G1 X186.408 Y9.488 E126.88791
G1 X185.128 Y9.235 E126.95301
G1 X174.049 Y9.235 E127.50574
G1 X172.575 Y9.534 E127.58078
G1 X171.887 Y9.836 E127.61826
G1 X170.879 Y10.427 E127.67656
G1 X169.829 Y11.362 E127.7467
G1 X169.402 Y11.951 E127.783
G1 X168.726 Y13.141 E127.85128
G1 X168.542 Y13.716 E127.8814
G1 X168.289 Y14.996 E127.94649
G1 X168.289 Y17.233 E128.0581
G1 X120.889 Y17.233 E130.42289
G1 X120.889 Y14.995 E130.53455
G1 X120.59 Y13.521 E130.60958
G1 X120.288 Y12.833 E130.64707
G1 X119.697 Y11.825 E130.70537
G1 X118.762 Y10.775 E130.77551
G1 X118.173 Y10.348 E130.8118
G1 X116.983 Y9.672 E130.88008
G1 X116.408 Y9.488 E130.9102
G1 X115.128 Y9.235 E130.9753
G1 X104.049 Y9.235 E131.52803
G1 X102.575 Y9.534 E131.60307
G1 X101.887 Y9.836 E131.64055
G1 X100.879 Y10.427 E131.69885
G1 X99.829 Y11.362 E131.76899
G1 X99.402 Y11.951 E131.80529
G1 X98.726 Y13.141 E131.87357
G1 X98.542 Y13.716 E131.90369
G1 X98.289 Y14.996 E131.96878
G1 X98.289 Y17.233 E132.08039
G1 X84.049 Y17.233 E132.79082
G1 X82.575 Y17.532 E132.86586
G1 X81.887 Y17.834 E132.90335
G1 X80.879 Y18.425 E132.96164
G1 X79.829 Y19.36 E133.03178
G1 X79.402 Y19.949 E133.06808
G1 X78.726 Y21.139 E133.13636
G1 X78.542 Y21.714 E133.16648
G0 F6000 X79.131 Y21.83
G1 F1200 X79.277 Y21.384 E133.18989
G1 X79.924 Y20.246 E133.2552
G1 X80.278 Y19.764 E133.28504
G1 X81.231 Y18.915 E133.34871
G1 X82.191 Y18.352 E133.40424
G1 X82.756 Y18.107 E133.43496
G1 X84.109 Y17.833 E133.50383
G1 X98.889 Y17.833 E134.24121
G1 X98.889 Y15.056 E134.37976
G1 X99.131 Y13.832 E134.442
G1 X99.277 Y13.386 E134.46542
G1 X99.924 Y12.248 E134.53073
G1 X100.278 Y11.766 E134.56056
G1 X101.231 Y10.917 E134.62424
G1 X102.191 Y10.354 E134.67976
G1 X102.756 Y10.109 E134.71048
G1 X104.109 Y9.835 E134.77936
G1 X115.068 Y9.835 E135.3261
G1 X116.292 Y10.077 E135.38835
G1 X116.738 Y10.223 E135.41176
G1 X117.876 Y10.87 E135.47707
G1 X118.358 Y11.224 E135.50691
G1 X119.207 Y12.177 E135.57059
G1 X119.77 Y13.137 E135.62611
G1 X120.015 Y13.702 E135.65683
G1 X120.289 Y15.055 E135.7257
G1 X120.289 Y17.833 E135.8643
G1 X168.889 Y17.833 E138.28896
G1 X168.889 Y15.056 E138.42751
G1 X169.131 Y13.832 E138.48976
G1 X169.277 Y13.386 E138.51317
G1 X169.924 Y12.248 E138.57848
G1 X170.278 Y11.766 E138.60831
G1 X171.231 Y10.917 E138.67199
G1 X172.191 Y10.354 E138.72751
G1 X172.756 Y10.109 E138.75824
G1 X174.109 Y9.835 E138.82711
G1 X185.068 Y9.835 E139.37386
G1 X186.292 Y10.077 E139.4361
G1 X186.738 Y10.223 E139.45952
G1 X187.876 Y10.87 E139.52483
G1 X188.358 Y11.224 E139.55466
G1 X189.207 Y12.177 E139.61834
G1 X189.77 Y13.137 E139.67386
G1 X190.015 Y13.702 E139.70459
G1 X190.289 Y15.055 E139.77346
G1 X190.289 Y17.833 E139.91205
G1 X205.068 Y17.833 E140.64938
G1 X206.292 Y18.075 E140.71163
G1 X206.738 Y18.221 E140.73504
G1 X207.876 Y18.868 E140.80035
G1 X208.358 Y19.222 E140.83019
G1 X209.207 Y20.175 E140.89386
G1 X209.77 Y21.135 E140.94939
G1 X210.015 Y21.7 E140.98011
G1 X210.289 Y23.053 E141.04898
G1 X210.289 Y204.012 E150.07706
G1 X210.047 Y205.236 E150.13931
G1 X209.901 Y205.682 E150.16272
G1 X209.254 Y206.82 E150.22803
G1 X208.9 Y207.302 E150.25787
G1 X207.947 Y208.151 E150.32154
G1 X206.987 Y208.714 E150.37707
G1 X206.422 Y208.959 E150.40779
G1 X205.069 Y209.233 E150.47666
G1 X184.113 Y209.233 E151.52216
G1 X182.889 Y208.991 E151.58441
G1 X182.443 Y208.845 E151.60782
G1 X181.305 Y208.198 E151.67313
G1 X180.823 Y207.844 E151.70297
G1 X179.974 Y206.891 E151.76664
G1 X179.587 Y206.231 E151.80482
G1 X179.252 Y206.82 E151.83862
G1 X178.898 Y207.302 E151.86846
G1 X177.945 Y208.151 E151.93213
G1 X176.985 Y208.714 E151.98766
G1 X176.42 Y208.959 E152.01838
G1 X175.067 Y209.233 E152.08725
G1 X114.112 Y209.233 E155.12831
G1 X112.888 Y208.991 E155.19056
G1 X112.442 Y208.845 E155.21397
G1 X111.304 Y208.198 E155.27928
G1 X110.822 Y207.844 E155.30912
G1 X109.973 Y206.891 E155.37279
G1 X109.586 Y206.231 E155.41096
G1 X109.251 Y206.82 E155.44477
G1 X108.897 Y207.302 E155.4746
G1 X107.944 Y208.151 E155.53828
G1 X106.984 Y208.714 E155.5938
G1 X106.419 Y208.959 E155.62453
G1 X105.066 Y209.233 E155.6934
